svgs/solid/audio-description-slash.svg

<svg xmlns="http://www.w3.org/2000/svg" viewBox="0 0 640 512"><!--! Font Awesome Pro 6.0.0-alpha3 by @fontawesome - https://fontawesome.com License - https://fontawesome.com/license (Commercial License) --><path d="M630.8 469.1l-30.73-24.09c4.623-8.783 7.922-18.37 7.922-29.02L608 96c0-35.35-28.65-64-64-64L96 32c-6.645 0-12.96 1.176-18.96 3.073L38.81 5.111C34.41 1.673 29.19 .0003 24.03 .0003c-7.125 0-14.19 3.157-18.91 9.189c-8.188 10.44-6.37 25.53 4.068 33.7l591.1 463.1c10.5 8.203 25.57 6.328 33.69-4.078C643.1 492.4 641.2 477.3 630.8 469.1zM464.2 338.5l-44.53-34.9c24.72-1.92 44.32-22.42 44.32-47.63c0-26.47-21.53-48-48-48h-32v67.66l-48-37.62V184c0-13.25 10.75-24 24-24h56c52.94 0 96 43.06 96 96C512 291.3 492.7 321.8 464.2 338.5zM306.7 349.5c-3.438 1.719-7.094 2.531-10.69 2.531c-8.813 0-17.28-4.859-21.5-13.27l-9.367-18.73H182.8l-9.367 18.73C167.6 350.6 153.2 355.4 141.3 349.5c-11.88-5.938-16.69-20.34-10.75-32.2l42.49-84.97L32 121.8l0 294.2c0 35.35 28.65 64 64 64l393.1 .0002l-174.6-136.8C312.4 345.7 309.8 347.9 306.7 349.5zM202.8 280h31.05l-22.3-17.48L202.8 280z"/></svg>

<svg xmlns="http://www.w3.org/2000/svg" viewBox="0 0 640 512"><!-- Font Awesome Pro 6.0.0-alpha2 by @fontawesome - https://fontawesome.com License - https://fontawesome.com/license (Commercial License) --><path d="M630.811 469.103L600.078 445.015C604.701 436.232 608 426.648 608 416.002V96C608 60.653 579.346 32 544 32H95.999C89.355 32 83.042 33.176 77.042 35.072L38.814 5.109C34.407 1.672 29.189 0 24.032 0C16.907 0 9.845 3.156 5.126 9.188C-3.061 19.625 -1.249 34.717 9.189 42.889L562.867 476.849L601.186 506.883C611.686 515.086 626.748 513.211 634.873 502.805C643.061 492.369 641.248 477.275 630.811 469.103ZM464.217 338.531L419.685 303.628C444.408 301.708 464 281.208 464 256.001C464 229.532 442.469 208.001 416 208.001H384V275.659L336 238.038V184.001C336 170.751 346.75 160.001 360 160.001H416C468.937 160.001 512 203.063 512 256.001C512 291.288 492.654 321.849 464.217 338.531ZM306.718 349.47C303.281 351.189 299.625 352.001 296.031 352.001C287.218 352.001 278.75 347.142 274.531 338.736L265.164 320.001H182.835L173.468 338.736C167.562 350.595 153.156 355.439 141.281 349.47C129.406 343.533 124.593 329.126 130.531 317.267L173.017 232.294L31.999 121.768V416.002C31.999 451.347 60.654 480.002 95.999 480.002H489.06L314.486 343.173C312.406 345.71 309.845 347.906 306.718 349.47ZM202.835 280.001H233.884L211.578 262.517L202.835 280.001Z"/></svg>
